svgs/sharp-solid/expand-wide.svg

<svg xmlns="http://www.w3.org/2000/svg" viewBox="0 0 512 512"><!--! Font Awesome Pro 6.6.0 by @fontawesome - https://fontawesome.com License - https://fontawesome.com/license (Commercial License) Copyright 2024 Fonticons, Inc. --><path d="M32 64L0 64 0 96l0 96 0 32 64 0 0-32 0-64 64 0 32 0 0-64-32 0L32 64zM64 320l0-32L0 288l0 32 0 96 0 32 32 0 96 0 32 0 0-64-32 0-64 0 0-64zM384 64l-32 0 0 64 32 0 64 0 0 64 0 32 64 0 0-32 0-96 0-32-32 0-96 0zM512 320l0-32-64 0 0 32 0 64-64 0-32 0 0 64 32 0 96 0 32 0 0-32 0-96z"/></svg>

<svg xmlns="http://www.w3.org/2000/svg" viewBox="0 0 512 512"><!--! Font Awesome Pro 6.4.2 by @fontawesome - https://fontawesome.com License - https://fontawesome.com/license (Commercial License) Copyright 2023 Fonticons, Inc. --><path d="M32 64H0V96v96 32H64V192 128h64 32V64H128 32zM64 320V288H0v32 96 32H32h96 32V384H128 64V320zM384 64H352v64h32 64v64 32h64V192 96 64H480 384zM512 320V288H448v32 64H384 352v64h32 96 32V416 320z"/></svg>
